X:1
T:Lost, but Jesus Saved Me
T:Edwin Othello Excell
T:Lost, but Jesus Saved Me
T:Public Domain
T:Public Domain
C:Edwin Othello Excell
Z:Public Domain
%%score ( 1 2 ) ( 3 4 )
L:1/8
M:6/8
K:Ab
V:1 treble 
V:2 treble 
V:3 bass 
V:4 bass 
V:1
 [Ec]2 [Ec] ([Ec][DB])[CA] | [CA]3 [B,G]3 | (BA)[Gd] [Fd]2 (E/D/) | ([DF]3 [CE]3) | %4
w: 1.~Lost, but Je- * sus|saved me,|Saved * me by His *|but *|
w: 2.~Lost up- on * the|mount- ains|Of * life’s woe and *|but *|
w: 3.~Lost far o’er * the|de- sert,|Know * not where to *|but *|
 [Ec]2 [Ec] ([Ec][DB])[CA] | [CA]3 [B,G]3 | (BA)[Gd] [Fd]2 (E/D/) | [CA]6 | %8
w: now He keeps * me|For my|rest * a- bove; Lost, *|sus|
w: His free par- * don|Safe- ly|took * me in; Lost, *|sus|
w: Je- sus loved * me,|Kind- ly|pi- * tied me; Lost, *|sus|
 [B,G]2 [B,G] [CA]2 [CA] | ([DB]2 [CA]) [B,G]3 | [CA]2 [CA] [DB]2 [=D=B] | [Ec]6 | %12
w: found me, In the|de- * sert|wild; Lost, but He|re-|
w: bought me, Bought me|with * His|blood; Lost, but Je-|sus|
w: brought me, Out in-|to * the|light; Lost, but still|He|
 [Ec]2 [Ec] ([Ec][DB])[CA] | [CA]3 [B,G]3 | (BA)[Gd] [Fd]2 (E/D/) | [CA]6 |] %16
w: deemed me, Owns * me|for His|child. * * * * *||
w: keeps me In * the|nar- row|road. * * * * *||
w: saves me, Guards * me|with His|might. * * * * *||
V:2
 x6 | x6 | d2 x2 G x | x6 | x6 | x6 | d2 x2 G x | x6 | x6 | x6 | x6 | x6 | x6 | x6 | d2 x2 G x | %15
w: ||love; Lost,||||but Je-|||||||||
w: ||sin; Lost,||||but Je-|||||||||
w: ||flee; Lost,||||but Je-|||||||||
 x6 |] %16
w: |
w: |
w: |
V:3
 [A,,A,]2 [A,,A,] [A,,A,]2 [A,,A,] | E,3 E,3 | E,2 E, E,2 E, | [A,,A,]6 | %4
 [A,,A,]2 [A,,A,] [A,,A,]2 [A,,A,] | E,3 E,3 | E,2 E, E,2 E, | [A,,A,]6 | %8
 [E,B,]2 [E,B,] [E,C]2 [E,C] | ([E,D]2 [E,C]) [E,B,]3 | [A,,C]2 [A,,C] [A,,D]2 [A,,=D] | [A,,E]6 | %12
 [A,,A,]2 [A,,A,] [A,,A,]2 [A,,A,] | E,3 E,3 | E,2 E, E,2 E, | [A,,E,]6 |] %16
V:4
 x6 | E,3 E,3 | E,2 E, E,2 E, | x6 | x6 | E,3 E,3 | E,2 E, E,2 E, | x6 | x6 | x6 | x6 | x6 | x6 | %13
 E,3 E,3 | E,2 E, E,2 E, | x6 |] %16

